assets/svg/logo_payix.svg

<svg fill="none" height="46" viewBox="0 0 125 46" width="125" xmlns="http://www.w3.org/2000/svg" xmlns:xlink="http://www.w3.org/1999/xlink"><clipPath id="a"><path d="m0 0h125v46h-125z"/></clipPath><g clip-path="url(#a)"><g clip-rule="evenodd" fill-rule="evenodd"><path d="m12.8846 16.3448c-1.9858 0-3.63316.659-4.94131 1.9762-1.3087 1.3175-1.96264 3.0397-1.96264 5.1652 0 2.1707.65394 3.9264 1.96264 5.2662 1.30815 1.3402 2.95551 2.0101 4.94131 2.0101 1.9239 0 3.5445-.6815 4.8607-2.0437 1.316-1.3625 1.9741-3.099 1.9741-5.2104 0-2.0957-.6467-3.8138-1.9395-5.1538-1.2931-1.3397-2.9252-2.0098-4.8953-2.0098zm-6.62683-5.0303v2.6946c1.13881-1.1076 2.37037-1.9386 3.69411-2.4928 1.32402-.5534 2.73992-.8308 4.24892-.8308 3.2788 0 6.0647 1.2054 8.3588 3.6156 2.2935 2.4107 3.4404 5.5021 3.4404 9.275 0 3.638-1.1856 6.6806-3.556 9.1285-2.3706 2.4481-5.1802 3.6721-8.4281 3.6721-1.4469 0-2.7937-.2508-4.04062-.7525-1.24716-.5013-2.48651-1.321-3.71751-2.4592v11.5205h-6.25777v-33.371z" fill="#0a523b"/><path d="m40.0698 17.4128c-1.9487 0-3.5671.6782-4.8561 2.034-1.2886 1.3561-1.9331 3.0948-1.9331 5.2157 0 2.1368.6559 3.8942 1.9677 5.273 1.3117 1.3786 2.9262 2.0683 4.8443 2.0683 1.9791 0 3.6206-.6779 4.9246-2.0343 1.3039-1.3558 1.9562-3.1326 1.9562-5.3295 0-2.151-.6523-3.8939-1.9562-5.2272-1.304-1.3331-2.953-2-4.9474-2zm6.6265-5.0907h6.3037v24.7269h-6.3037v-2.6137c-1.2305 1.1518-2.4643 1.9813-3.7017 2.4887-1.2376.5077-2.5795.7615-4.0247.7615-3.2443 0-6.0505-1.2387-8.4184-3.7162-2.3676-2.4773-3.5515-5.5565-3.5515-9.2382 0-3.8183 1.1458-6.9469 3.4365-9.3866 2.291-2.4391 5.0738-3.659 8.3491-3.659 1.5067 0 2.9209.2807 4.2433.8408 1.3223.5608 2.5447 1.4018 3.6674 2.5227z" fill="#0a523b"/><path d="m57 11.6855h6.29l6.3718 15.6196 7.0305-15.6196h6.3077l-15.3628 34h-6.3566l5.0448-10.9639z" fill="#0a523b"/><path d="m85 36.6855h6v-25h-6z" fill="#0a523b"/><path d="m119 11.6855h-7.115l-4.885 6.9498 3.567 5.0502z" fill="#0a523b"/><path d="m93 36.6855h7.667l6.333-8.7293-3.843-5.2707z" fill="#0a523b"/><path d="m102.15 11.6855h-7.15l8.434 12 3.566-5.0993z" fill="#0a523b"/><path d="m110.844 22.6855-3.844 5.3259 6.292 8.6741h7.708z" fill="#0a523b"/><path d="m88.5208.685547-3.5208 5.041903 3.48 4.95805 3.52-5.04214z" fill="#83cd44"/></g><path d="m124.155 34.4141c.193 0 .381.0498.565.1493.184.0985.327.2402.43.425.102.1839.153.3758.153.5759 0 .198-.05.3885-.152.5713-.1.1828-.242.325-.425.4265-.182.1006-.372.1509-.571.1509s-.39-.0503-.573-.1509c-.182-.1015-.324-.2437-.425-.4265-.102-.1828-.152-.3733-.152-.5713 0-.2001.051-.392.153-.5759.104-.1848.248-.3265.432-.425.183-.0995.372-.1493.565-.1493zm0 .1904c-.162 0-.319.0417-.473.125-.152.0822-.271.2005-.358.3549-.086.1534-.129.3133-.129.4799 0 .1655.042.3245.126.4768.086.1514.205.2697.357.355.152.0843.311.1264.477.1264.165 0 .324-.0421.477-.1264.152-.0853.27-.2036.355-.355.084-.1523.126-.3113.126-.4768 0-.1666-.043-.3265-.129-.4799-.086-.1544-.205-.2727-.358-.3549-.154-.0833-.311-.125-.471-.125zm-.504 1.5951v-1.2371h.425c.145 0 .25.0117.315.0351.065.0223.117.0619.155.1188.039.0569.058.1173.058.1813 0 .0904-.032.1691-.097.2361-.064.0671-.15.1046-.256.1128.043.0182.078.0401.105.0655.05.0487.111.1305.183.2452l.15.2423h-.243l-.11-.195c-.086-.1534-.156-.2494-.209-.288-.036-.0284-.09-.0426-.16-.0426h-.117v.5256zm.199-.6962h.242c.116 0 .195-.0173.236-.0518.043-.0346.064-.0803.064-.1371 0-.0366-.01-.0691-.03-.0975-.02-.0295-.049-.0513-.085-.0656-.036-.0142-.102-.0213-.2-.0213h-.227z" fill="#3e3c38"/></g></svg>

<svg width="125" height="46" viewBox="0 0 125 46" fill="none" xmlns="http://www.w3.org/2000/svg">
<g clip-path="url(#clip0)">
<path fill-rule="evenodd" clip-rule="evenodd" d="M12.8846 16.3448C10.8988 16.3448 9.25144 17.0038 7.94329 18.321C6.63459 19.6385 5.98065 21.3607 5.98065 23.4862C5.98065 25.6569 6.63459 27.4126 7.94329 28.7524C9.25144 30.0926 10.8988 30.7625 12.8846 30.7625C14.8085 30.7625 16.4291 30.081 17.7453 28.7188C19.0613 27.3563 19.7194 25.6198 19.7194 23.5084C19.7194 21.4127 19.0727 19.6946 17.7799 18.3546C16.4868 17.0149 14.8547 16.3448 12.8846 16.3448ZM6.25777 11.3145V14.0091C7.39658 12.9015 8.62814 12.0705 9.95188 11.5163C11.2759 10.9629 12.6918 10.6855 14.2008 10.6855C17.4796 10.6855 20.2655 11.8909 22.5596 14.3011C24.8531 16.7118 26 19.8032 26 23.5761C26 27.2141 24.8144 30.2567 22.444 32.7046C20.0734 35.1527 17.2638 36.3767 14.0159 36.3767C12.569 36.3767 11.2222 36.1259 9.97528 35.6242C8.72812 35.1229 7.48877 34.3032 6.25777 33.165V44.6855H0V11.3145H6.25777Z" fill="#0A523B"/>
<path fill-rule="evenodd" clip-rule="evenodd" d="M40.0698 17.4128C38.1211 17.4128 36.5027 18.091 35.2137 19.4468C33.9251 20.8029 33.2806 22.5416 33.2806 24.6625C33.2806 26.7993 33.9365 28.5567 35.2483 29.9355C36.56 31.3141 38.1745 32.0038 40.0926 32.0038C42.0717 32.0038 43.7132 31.3259 45.0172 29.9695C46.3211 28.6137 46.9734 26.8369 46.9734 24.64C46.9734 22.489 46.3211 20.7461 45.0172 19.4128C43.7132 18.0797 42.0642 17.4128 40.0698 17.4128ZM46.6963 12.3221H53V37.049H46.6963V34.4353C45.4658 35.5871 44.232 36.4166 42.9946 36.924C41.757 37.4317 40.4151 37.6855 38.9699 37.6855C35.7256 37.6855 32.9194 36.4468 30.5515 33.9693C28.1839 31.492 27 28.4128 27 24.7311C27 20.9128 28.1458 17.7842 30.4365 15.3445C32.7275 12.9054 35.5103 11.6855 38.7856 11.6855C40.2923 11.6855 41.7065 11.9662 43.0289 12.5263C44.3512 13.0871 45.5736 13.9281 46.6963 15.049V12.3221Z" fill="#0A523B"/>
<path fill-rule="evenodd" clip-rule="evenodd" d="M57 11.6855H63.29L69.6618 27.3051L76.6923 11.6855H83L67.6372 45.6855H61.2806L66.3254 34.7216L57 11.6855Z" fill="#0A523B"/>
<path fill-rule="evenodd" clip-rule="evenodd" d="M85 36.6855H91V11.6855H85V36.6855Z" fill="#0A523B"/>
<path fill-rule="evenodd" clip-rule="evenodd" d="M119 11.6855H111.885L107 18.6353L110.567 23.6855L119 11.6855Z" fill="#0A523B"/>
<path fill-rule="evenodd" clip-rule="evenodd" d="M93 36.6855H100.667L107 27.9562L103.157 22.6855L93 36.6855Z" fill="#0A523B"/>
<path fill-rule="evenodd" clip-rule="evenodd" d="M102.15 11.6855H95L103.434 23.6855L107 18.5862L102.15 11.6855Z" fill="#0A523B"/>
<path fill-rule="evenodd" clip-rule="evenodd" d="M110.844 22.6855L107 28.0114L113.292 36.6855H121L110.844 22.6855Z" fill="#0A523B"/>
<path fill-rule="evenodd" clip-rule="evenodd" d="M88.5208 0.685547L85 5.72745L88.48 10.6855L92 5.64336L88.5208 0.685547Z" fill="#83CD44"/>
<path d="M124.155 34.4141C124.348 34.4141 124.536 34.4639 124.72 34.5634C124.904 34.6619 125.047 34.8036 125.15 34.9884C125.252 35.1723 125.303 35.3642 125.303 35.5643C125.303 35.7623 125.253 35.9528 125.151 36.1356C125.051 36.3184 124.909 36.4606 124.726 36.5621C124.544 36.6627 124.354 36.713 124.155 36.713C123.956 36.713 123.765 36.6627 123.582 36.5621C123.4 36.4606 123.258 36.3184 123.157 36.1356C123.055 35.9528 123.005 35.7623 123.005 35.5643C123.005 35.3642 123.056 35.1723 123.158 34.9884C123.262 34.8036 123.406 34.6619 123.59 34.5634C123.773 34.4639 123.962 34.4141 124.155 34.4141ZM124.155 34.6045C123.993 34.6045 123.836 34.6462 123.682 34.7295C123.53 34.8117 123.411 34.93 123.324 35.0844C123.238 35.2378 123.195 35.3977 123.195 35.5643C123.195 35.7298 123.237 35.8888 123.321 36.0411C123.407 36.1925 123.526 36.3108 123.678 36.3961C123.83 36.4804 123.989 36.5225 124.155 36.5225C124.32 36.5225 124.479 36.4804 124.632 36.3961C124.784 36.3108 124.902 36.1925 124.987 36.0411C125.071 35.8888 125.113 35.7298 125.113 35.5643C125.113 35.3977 125.07 35.2378 124.984 35.0844C124.898 34.93 124.779 34.8117 124.626 34.7295C124.472 34.6462 124.315 34.6045 124.155 34.6045ZM123.651 36.1996V34.9625H124.076C124.221 34.9625 124.326 34.9742 124.391 34.9976C124.456 35.0199 124.508 35.0595 124.546 35.1164C124.585 35.1733 124.604 35.2337 124.604 35.2977C124.604 35.3881 124.572 35.4668 124.507 35.5338C124.443 35.6009 124.357 35.6384 124.251 35.6466C124.294 35.6648 124.329 35.6867 124.356 35.7121C124.406 35.7608 124.467 35.8426 124.539 35.9573L124.689 36.1996H124.446L124.336 36.0046C124.25 35.8512 124.18 35.7552 124.127 35.7166C124.091 35.6882 124.037 35.674 123.967 35.674H123.85V36.1996H123.651ZM123.85 35.5034H124.092C124.208 35.5034 124.287 35.4861 124.328 35.4516C124.371 35.417 124.392 35.3713 124.392 35.3145C124.392 35.2779 124.382 35.2454 124.362 35.217C124.342 35.1875 124.313 35.1657 124.277 35.1514C124.241 35.1372 124.175 35.1301 124.077 35.1301H123.85V35.5034Z" fill="#3E3C38"/>
</g>
<defs>
<clipPath id="clip0">
<rect width="125" height="46" fill="white"/>
</clipPath>
</defs>
</svg>
